src/lib/packages/icons/src/assets/line/location-pin-exclamation.svg

<svg xmlns="http://www.w3.org/2000/svg" width="24" height="24" fill="none"><path fill="currentColor" d="M12 2.25c-4.825 0-8.75 3.925-8.75 8.75 0 5.118 4.696 8.22 7.805 10.273l.529.351a.75.75 0 0 0 .832 0l.529-.351C16.053 19.22 20.75 16.118 20.75 11c0-4.825-3.925-8.75-8.75-8.75Zm.119 17.771-.119.08-.119-.08C8.872 18.033 4.75 15.311 4.75 11c0-3.998 3.252-7.25 7.25-7.25s7.25 3.252 7.25 7.25c0 4.311-4.122 7.034-7.131 9.021ZM11.25 11V8a.75.75 0 0 1 1.5 0v3a.75.75 0 0 1-1.5 0Zm1.77 3a1 1 0 0 1-1 1 1.005 1.005 0 0 1-1.005-1c0-.552.443-1 .995-1h.01a1 1 0 0 1 1 1Z"/></svg>

<svg width="24" height="24" viewBox="0 0 24 24" fill="none" xmlns="http://www.w3.org/2000/svg">
<path d="M12 2.25C7.175 2.25 3.25 6.175 3.25 11C3.25 16.118 7.94599 19.2199 11.055 21.2729L11.584 21.624C11.71 21.708 11.855 21.75 12 21.75C12.145 21.75 12.29 21.708 12.416 21.624L12.945 21.2729C16.053 19.2199 20.75 16.118 20.75 11C20.75 6.175 16.825 2.25 12 2.25ZM12.119 20.021L12 20.1001L11.881 20.021C8.87198 18.033 4.75 15.311 4.75 11C4.75 7.002 8.002 3.75 12 3.75C15.998 3.75 19.25 7.002 19.25 11C19.25 15.311 15.128 18.034 12.119 20.021ZM11.25 11V8C11.25 7.586 11.586 7.25 12 7.25C12.414 7.25 12.75 7.586 12.75 8V11C12.75 11.414 12.414 11.75 12 11.75C11.586 11.75 11.25 11.414 11.25 11ZM13.02 14C13.02 14.552 12.573 15 12.02 15C11.468 15 11.015 14.552 11.015 14C11.015 13.448 11.458 13 12.01 13H12.02C12.572 13 13.02 13.448 13.02 14Z" fill="currentColor"/>
</svg>
